www/assets/icons/emoji_nature.svg

<svg width="24" height="24" viewBox="0 0 24 24" xmlns="http://www.w3.org/2000/svg" fill='currentColor'><path d="M21.9428 4.88C21.7628 4.35 21.2528 4 20.6828 4C20.6528 4 20.6228 4 20.5928 4H19.6028L19.2928 3.03C19.1528 2.43 18.6128 2 18.0028 2C17.3928 2 16.8528 2.43 16.7128 3.04L16.4028 4H15.4228C15.3928 4 15.3628 4 15.3328 4C14.7628 4 14.2528 4.35 14.0728 4.88C13.8828 5.44 14.1128 6.05 14.6328 6.36L15.5028 6.88L15.1028 8.12C14.8728 8.7 15.0628 9.37 15.5528 9.74C15.7828 9.91 16.0628 10 16.3328 10C16.6428 10 16.9428 9.89 17.1928 9.68L18.0028 8.98L18.8128 9.68C19.0628 9.89 19.3628 10 19.6728 10C19.9428 10 20.2228 9.91 20.4528 9.74C20.9528 9.37 21.1328 8.7 20.9028 8.12L20.5128 6.88L21.3828 6.36C21.8928 6.05 22.1228 5.44 21.9428 4.88ZM18.0028 7C17.4528 7 17.0028 6.55 17.0028 6C17.0028 5.45 17.4528 5 18.0028 5C18.5528 5 19.0028 5.45 19.0028 6C19.0028 6.55 18.5528 7 18.0028 7Z"/><path d="M13.4928 10.51C13.0628 10.08 12.5528 9.78 12.0028 9.58V8H11.0028V9.38C10.8928 9.37 10.7728 9.35 10.6628 9.35C9.64283 9.35 8.61283 9.74 7.83283 10.52C7.67283 10.68 7.53283 10.86 7.40283 11.05L6.00283 10.52C4.44283 9.97 2.72283 10.79 2.17283 12.34C1.90283 13.09 1.94283 13.91 2.29283 14.63C2.52283 15.11 2.87283 15.5 3.29283 15.79C2.91283 17.14 3.23283 18.64 4.29283 19.7C5.35283 20.76 6.86283 21.08 8.20283 20.7C8.49283 21.12 8.88283 21.47 9.36283 21.7C9.78283 21.9 10.2128 22 10.6528 22C10.9928 22 11.3328 21.94 11.6628 21.83C13.2228 21.28 14.0428 19.56 13.4828 17.98L12.9628 16.61C13.1428 16.48 13.3228 16.34 13.4928 16.18C14.3628 15.31 14.7328 14.14 14.6328 13.01H16.0028V12.01H14.4128C14.2228 11.46 13.9228 10.95 13.4928 10.51ZM4.67283 14.29C4.42283 14.2 4.22283 14.02 4.10283 13.78C3.98283 13.54 3.97283 13.27 4.06283 13.02C4.25283 12.5 4.82283 12.23 5.32283 12.41L8.48283 13.6C7.33283 14.2 5.85283 14.71 4.67283 14.29ZM10.9928 19.94C10.7428 20.03 10.4728 20.02 10.2328 19.9C9.99283 19.79 9.81283 19.58 9.72283 19.33C9.30283 18.15 9.81283 16.68 10.4228 15.53L11.6028 18.66C11.7828 19.18 11.5128 19.76 10.9928 19.94ZM12.2028 14.6L11.5928 12.99C11.5928 12.98 11.5828 12.97 11.5728 12.96C11.5528 12.92 11.5328 12.88 11.5128 12.84C11.4928 12.8 11.4728 12.77 11.4428 12.73C11.4128 12.7 11.3828 12.67 11.3528 12.64C11.3228 12.61 11.2928 12.58 11.2628 12.55C11.2328 12.52 11.1928 12.5 11.1528 12.48C11.1128 12.46 11.0828 12.43 11.0328 12.42C11.0228 12.42 11.0128 12.41 11.0028 12.4L9.40283 11.8C9.76283 11.51 10.1928 11.34 10.6628 11.34C11.1928 11.34 11.7028 11.55 12.0728 11.93C12.8028 12.66 12.8428 13.81 12.2028 14.6Z"/></svg>

<svg xmlns="http://www.w3.org/2000/svg" width="24" height="24" viewBox="0 0 24 24" fill='currentColor'><path d="M21.943 4.88a1.32 1.32 0 0 0-1.26-.88h-1.08l-.31-.97c-.14-.6-.68-1.03-1.29-1.03s-1.15.43-1.29 1.04l-.31.96h-1.07c-.57 0-1.08.35-1.26.88-.19.56.04 1.17.56 1.48l.87.52-.4 1.24c-.23.58-.04 1.25.45 1.62.23.17.51.26.78.26.31 0 .61-.11.86-.32l.81-.7.81.7c.25.21.55.32.86.32.27 0 .55-.09.78-.26.5-.37.68-1.04.45-1.62l-.39-1.24.87-.52c.51-.31.74-.92.56-1.48M18.003 7c-.55 0-1-.45-1-1s.45-1 1-1 1 .45 1 1-.45 1-1 1m-4.51 3.51c-.43-.43-.94-.73-1.49-.93V8h-1v1.38c-.11-.01-.23-.03-.34-.03-1.02 0-2.05.39-2.83 1.17-.16.16-.3.34-.43.53l-1.4-.53a3.01 3.01 0 0 0-3.83 1.82c-.27.75-.23 1.57.12 2.29.23.48.58.87 1 1.16-.38 1.35-.06 2.85 1 3.91a3.98 3.98 0 0 0 3.91 1c.29.42.68.77 1.16 1q.63.3 1.29.3c.34 0 .68-.06 1.01-.17a3.007 3.007 0 0 0 1.82-3.85l-.52-1.37c.18-.13.36-.27.53-.43.87-.87 1.24-2.04 1.14-3.17h1.37v-1h-1.59c-.19-.55-.49-1.06-.92-1.5m-8.82 3.78a1.02 1.02 0 0 1-.57-.51.96.96 0 0 1-.04-.76c.19-.52.76-.79 1.26-.61l3.16 1.19c-1.15.6-2.63 1.11-3.81.69m6.32 5.65c-.25.09-.52.08-.76-.04a1 1 0 0 1-.51-.57c-.42-1.18.09-2.65.7-3.8l1.18 3.13c.18.52-.09 1.1-.61 1.28m1.21-5.34-.61-1.61c0-.01-.01-.02-.02-.03l-.06-.12a1 1 0 0 0-.07-.11l-.09-.09-.09-.09a.4.4 0 0 0-.11-.07c-.04-.02-.07-.05-.12-.06-.01 0-.02-.01-.03-.02l-1.6-.6a1.966 1.966 0 0 1 2.67.13c.73.73.77 1.88.13 2.67"/></svg>
